picto/luggage-lockers.svg

<svg class="color-immutable" width="24" height="24" viewBox="0 0 24 24" fill="none" xmlns="http://www.w3.org/2000/svg"><path d="M0 22.5V1.5C0 0.675 0.675 0 1.5 0H22.5C23.325 0 24 0.675 24 1.5V22.5C24 23.325 23.325 24 22.5 24H1.5C0.675 24 0 23.325 0 22.5Z" fill="#2D327D"/><path d="M3 7.875V21H21V7.875H3ZM19.875 19.875H4.125V9H19.875V19.875Z" fill="white"/><path d="M7.125 19.125H16.874C17.496 19.125 18 18.622 18 18V12.3C18 11.681 17.496 11.176 16.874 11.176H13.8V10.689C13.8 10.171 13.379 9.75 12.862 9.75H11.137C10.62 9.75 10.201 10.171 10.201 10.689V11.176H7.125C6.504 11.176 6 11.681 6 12.3V18C6 18.622 6.504 19.125 7.125 19.125ZM10.875 10.426H13.125V11.176H10.875V10.426Z" fill="white"/><path d="M9.37501 5.43801L10.125 6.18801L10.875 5.43801L11.625 6.18801L12.563 5.25001L11.625 4.31201H7.33601C6.97801 3.51601 6.17901 2.96201 5.25001 2.96201C3.98701 2.96201 2.96301 3.98601 2.96301 5.24901C2.96301 6.51201 3.98701 7.53601 5.25001 7.53601C6.17901 7.53601 6.97801 6.98201 7.33601 6.18601H8.62501L9.37501 5.43801ZM4.12501 6.00001C3.71101 6.00001 3.37501 5.66401 3.37501 5.25001C3.37501 4.83601 3.71101 4.50001 4.12501 4.50001C4.53901 4.50001 4.87501 4.83601 4.87501 5.25001C4.87501 5.66401 4.53901 6.00001 4.12501 6.00001Z" fill="white"/></svg>

<svg class="color-immutable" width="24" height="24" viewBox="0 0 24 24" fill="none" xmlns="http://www.w3.org/2000/svg"><g clip-path="url(#a)"><path d="M0 22.5v-21C0 .675.675 0 1.5 0h21c.825 0 1.5.675 1.5 1.5v21c0 .825-.675 1.5-1.5 1.5h-21C.675 24 0 23.325 0 22.5Z" fill="#2D327D"/><path d="M3 7.875V21h18V7.875H3Zm16.875 12H4.125V9h15.75v10.875Z" fill="#fff"/><path d="M7.125 19.125h9.749c.622 0 1.126-.503 1.126-1.125v-5.7c0-.619-.504-1.124-1.126-1.124H13.8v-.487a.94.94 0 0 0-.938-.939h-1.725a.938.938 0 0 0-.936.939v.487H7.125C6.504 11.176 6 11.681 6 12.3V18c0 .622.504 1.125 1.125 1.125Zm3.75-8.699h2.25v.75h-2.25v-.75ZM9.375 5.438l.75.75.75-.75.75.75.938-.938-.938-.938H7.336a2.286 2.286 0 1 0 0 1.874h1.289l.75-.748ZM4.125 6a.75.75 0 1 1 0-1.5.75.75 0 0 1 0 1.5Z" fill="#fff"/></g><defs><clipPath id="a"><path fill="#fff" d="M0 0h24v24H0z"/></clipPath></defs></svg>
